!!!ONB: MCCC : IFS0367_03 : Extracted Monophonic Melody
!!!COM: Schubert, Franz
!!!OPR: 4 Impromptus
!!!OMV: 3
!!!SCT: D.935 ; Op.142
!!!ODT: 1827///
**kern
*staff1
=1
*clefG2
*k[b-]
*d:
*M4/4
4dd
8dd
8dd
4b-
4b-
=2
4a
8a
8a
48a
48ee-
12ee-[
4.ee-]
=3
4dd
8dd
8dd
8dd
8g
4g
=4
8cc
16b
16cc
16b
16cc
16dd
16cc
8f
8f
8f[
8f]
=5
4ddd
8ddd
8ddd
4bb-
4bb-
=6
4aa
8aa
8aa
48aa
48eee-
12eee-[
4.eee-]
=7
4ddd
8ddd
8ddd
4ggg
4ggg
=8
4.ccc
8fff
2bb-
=9
4dd
8dd
8dd
4b-
4b-
=10
4a
8a
8a
48a
48ee-
12ee-[
4.ee-]
=11
4dd
8dd
8dd
8dd
8g
4g
=12
8cc
16b
16cc
16b
16cc
16dd
16cc
8f
8f
8f[
8f]
=13
4ddd
8ddd
8ddd
4bb-
4bb-
=14
4aa
8aa
8aa
48aa
48eee-
12eee-[
4.eee-]
=15
4ddd
8ddd
8ddd
4ggg
4ggg
=16
4.ccc
8fff
2bb-
=17
4dd
8dd
8dd
4b-
4b-
=18
8.b-
32cc
32b-
8a
8g
4.cc
8b-
=19
4a
8a
8a
4g
4g
=20
8g
16a
16b-
8a
8g
8f
8f
8f[
8f]
=21
4ddd
8ddd
8ddd
4bb-
4bb-
=22
4r
16r
32r
64r
64ddd
16ccc
16bb-
2ggg
=23
4cc
8cc
8cc
4ff
4ff
=24
4.cc
8ff
2b-
=25
4dd
8dd
8dd
4b-
4b-
=26
8.b-
32cc
32b-
8a
8g
4.cc
8b-
=27
4a
8a
8a
4g
4g
=28
8g
16a
16b-
8a
8g
8f
8f
8f[
8f]
=29
4ddd
8ddd
8ddd
4bb-
4bb-
=30
4r
16r
32r
64r
64ddd
16ccc
16bb-
2ggg
=31
4cc
8cc
8cc
4ff
4ff
=32
4.cc
8ff
2b-
=33
4.cc
8ff
2b-
=34
1r
=35
16dd
16dd[
16dd]
16dd
16dd
16dd[
16dd]
16dd
16cc
16cc[
16cc]
16b-
[16b-
16b-_
16b-]
16cc
=36
[16b-
16b-_
16b-]
16a
16cc
16cc[
16cc]
16dd
16ee-
16ee-[
16ee-]
16ff#
16gg
16gg[
16gg]
16ee-
=37
16dd
16dd[
16dd]
16ee-
16dd
16dd[
16dd]
16cc
16cc
16cc[
16cc]
16cc
[16b
16b_
16b]
16b
=38
[16b
16b_
16b]
16cc
16ee-
16ee-[
16ee-]
16cc
[16b-
16b-_
16b-]
16b-
16a
16a[
16a]
16a
=39
16dd
16dd[
16dd]
16dd
16dd
16dd[
16dd]
16dd
16cc
16cc[
16cc]
16b-
[16b-
16b-_
16b-]
16cc
=40
[16b-
16b-_
16b-]
16a
16cc
16cc[
16cc]
16dd
16ee-
16ee-[
16ee-]
16ff#
16gg
16gg[
16gg]
16ee-
=41
16dd
16dd[
16dd]
16a
[16b-
16b-_
16b-]
16cc
16cc#
16cc#[
16cc#]
16gg
16aa
16aa[
16aa]
16bb-
=42
16cc
16cc[
16cc]
16dd
16ee-
16ee-[
16ee-]
16ff
[16b-
16b-_
16b-]
16a
[16b-
16b-_
16b-]
16cc
=43
16dd
16dd[
16dd]
16dd
16dd
16dd[
16dd]
16dd
16cc
16cc[
16cc]
16b-
[16b-
16b-_
16b-]
16cc
=44
[16b-
16b-_
16b-]
16a
16cc
16cc[
16cc]
16dd
16ee-
16ee-[
16ee-]
16ff#
16gg
16gg[
16gg]
16ee-
=45
16dd
16dd[
16dd]
16ee-
16dd
16dd[
16dd]
16cc
16cc
16cc[
16cc]
16cc
[16b
16b_
16b]
16b
=46
[16b
16b_
16b]
16cc
16ee-
16ee-[
16ee-]
16cc
[16b-
16b-_
16b-]
16b-
16a
16a[
16a]
16a
=47
16dd
16dd[
16dd]
16dd
16dd
16dd[
16dd]
16dd
16cc
16cc[
16cc]
16b-
[16b-
16b-_
16b-]
16cc
=48
[16b-
16b-_
16b-]
16a
16cc
16cc[
16cc]
16dd
16ee-
16ee-[
16ee-]
16ff#
16gg
16gg[
16gg]
16ee-
=49
16dd
16dd[
16dd]
16a
[16b-
16b-_
16b-]
16cc
16cc#
16cc#[
16cc#]
16gg
16aa
16aa[
16aa]
16bb-
=50
16cc
16cc[
16cc]
16dd
16ee-
16ee-[
16ee-]
16ff
[16b-
16b-_
16b-]
16a
[16b-
16b-_
16b-]
16cc
=51
16dd
16dd[
16dd]
16ee-
16dd
16dd[
16dd]
16cc
16cc
16cc[
16cc]
16b
16cc
16cc[
16cc]
16dd
=52
16gg
16gg[
16gg]
16aa-
16gg
16gg[
16gg]
16ff
16ff
16ff[
16ff]
16ee
16dd
16dd[
16dd]
16cc
=53
16cc
16cc[
16cc]
16dd
16ee
16ee[
16ee]
16ff
16ff
16ff[
16ff]
16dd
16cc
16cc[
16cc]
16b-
=54
16a
16a[
16a]
16b-
16g
16g[
16g]
16cc
16f[
16f]
16f
16a
16cc[
16cc]
16cc#[
16cc#]
=55
16dd
16dd[
16dd]
16dd
16dd
16dd[
16dd]
16dd
16cc
16cc[
16cc]
16b-
[16b-
16b-_
16b-]
16cc
=56
[16b-
16b-_
16b-]
16cc
16dd
16dd[
16dd]
16ee-
16ff#
16ff#[
16ff#]
16gg
16aa
16aa[
16aa]
16bb-
=57
16cc
16cc[
16cc]
16dd
16cc
16cc[
16cc]
16cc#
16dd
16dd[
16dd]
16dd
16ee-[
16ee-]
16dd
16ff
=58
16ff
16ff[
16ff]
16ee-
16dd
16dd[
16dd]
16cc
[16b-
16b-_
16b-]
16a
[16b-
16b-_
16b-]
16cc
=59
16dd
16dd[
16dd]
16ee-
16dd
16dd[
16dd]
16cc
16cc
16cc[
16cc]
16b
16cc
16cc[
16cc]
16dd
=60
16gg
16gg[
16gg]
16aa-
16gg
16gg[
16gg]
16ff
16ff
16ff[
16ff]
16ee
16dd
16dd[
16dd]
16cc
=61
16cc
16cc[
16cc]
16dd
16ee
16ee[
16ee]
16ff
16ff
16ff[
16ff]
16dd
16cc
16cc[
16cc]
16b-
=62
16a
16a[
16a]
16b-
16g
16g[
16g]
16cc
16f[
16f]
16f
16a
16cc[
16cc]
16cc#[
16cc#]
=63
16dd
16dd[
16dd]
16dd
16dd
16dd[
16dd]
16dd
16cc
16cc[
16cc]
16b-
[16b-
16b-_
16b-]
16cc
=64
[16b-
16b-_
16b-]
16cc
16dd
16dd[
16dd]
16ee-
16ff#
16ff#[
16ff#]
16gg
16aa
16aa[
16aa]
16bb-
=65
16cc
16cc[
16cc]
16dd
16cc
16cc[
16cc]
16cc#
16dd
16dd[
16dd]
16dd
16ee-[
16ee-]
16dd
16ff
=66
16ff
16ff[
16ff]
16ee-
16dd
16dd[
16dd]
16cc
[16b-
16b-_
16b-]
16cc
[16b-
16b-_
16b-]
16dd
=67
16ff
16ff[
16ff]
16ee-
16dd
16dd[
16dd]
16cc
[16b-
16b-_
16b-]
16dd
[16b-
16b-_
16b-]
16g
=68
1r
=69
8dd
16cc#
16dd
16cc#
16dd
16b-
16g
4g
8.f
32r
32b-
=70
16a
48b-
48a
48g
16a
16b-
16b
16cc
16cc#
16dd
4ff
4ee-
=71
8dd
16ee
16ff
16aa
16bb-
16ff
16dd
8cc
16ff#
16gg
16aa
16bb-
16gg
16cc
=72
16cc
16ccc
16bb
16bb-
16aa
16cc
16b-
16gg
16a
16ff
16cc
16ee-
16b-
16dd
16a
16cc
=73
16b-
16ddd
16ccc#
16ddd
16ccc#
16ddd
16bb-
16gg
4gg
8.ff
32r
32bb-
=74
16aa
48bb-
48aa
48gg
16aa
16bb-
16bb
16ccc
16ccc#
16ddd
8.fff
16eee
4eee-
=75
8ddd
16eee
16fff
16aaa
16bbb-
16fff
16ddd
8ccc#
16ggg
16bbb-
16cccc
16cccc#
16bbb-
16ccc#
=76
16ccc
16ddd
16eee-
16eee
16fff
16ggg
16eee-
16ccc
16bb-
16ff
16dd
16b-
16a
16b-
16cc
16cc#
=77
8dd
16cc#
16dd
16cc#
16dd
16b-
16g
4g
8.f
32r
32b-
=78
16a
48b-
48a
48g
16a
16b-
16b
16cc
16cc#
16dd
4ff
4ee-
=79
8dd
16ee
16ff
16aa
16bb-
16ff
16dd
8cc
16ff#
16gg
16aa
16bb-
16gg
16cc
=80
16cc
16ccc
16bb
16bb-
16aa
16cc
16b-
16gg
16a
16ff
16cc
16ee-
16b-
16dd
16a
16cc
=81
16b-
16ddd
16ccc#
16ddd
16ccc#
16ddd
16bb-
16gg
4gg
8.ff
32r
32bb-
=82
16aa
48bb-
48aa
48gg
16aa
16bb-
16bb
16ccc
16ccc#
16ddd
8.fff
16eee
4eee-
=83
8ddd
16eee
16fff
16aaa
16bbb-
16fff
16ddd
8ccc#
16ggg
16bbb-
16cccc
16cccc#
16bbb-
16ccc#
=84
16ccc
16ddd
16eee-
16eee
16fff
16ggg
16eee-
16ccc
16bb-
16ff
16dd
16b-
16a
16b-
16cc
16cc#
=85
4dd
8dd
8dd
4.gg
8gg
=86
4dd[
8dd]
8ff
4.ee[
8ee]
=87
4.aa
8aa
8dd
16gg
16bb-
16ccc#
16ddd
16ggg
16bbb-
=88
16eee
16cccc
16bbb-
16ggg
16eee
16ccc
16bb-
16gg
8ff
4.ff
=89
8ddd
16ccc#
16ddd
16ccc#
16ddd
16fff
16ddd
4ccc
8.bb-
32r
32bb-
=90
16aa
16bb-
16ccc
16ddd
16eee-
16eee
16fff
16fff#
40ggg
40aaa
40ggg
40fff#
40ggg[
16ggg]
16aaa
4bbb-
=91
32cc
32dd
16cc
16b
16cc
16ee
16bb-
16gg
16ee
32ff
32gg
16ff
16ee
16ff
16bb-
16fff
16ddd
16bb-
=92
16aa
16bb-
16ccc
16ddd
16eee-
16fff
16ggg
32aaa
32cccc
16bbb-
16fff
16ddd
16bb-
16ff
16dd
16b-
16cc
=93
4dd
8dd
8dd
4.gg
8gg
=94
4dd[
8dd]
8ff
4.ee[
8ee]
=95
4.aa
8aa
8dd
16gg
16bb-
16ccc#
16ddd
16ggg
16bbb-
=96
16eee
16cccc
16bbb-
16ggg
16eee
16ccc
16bb-
16gg
8ff
4.ff
=97
8ddd
16ccc#
16ddd
16ccc#
16ddd
16fff
16ddd
4ccc
8.bb-
32r
32bb-
=98
16aa
16bb-
16ccc
16ddd
16eee-
16eee
16fff
16fff#
40ggg
40aaa
40ggg
40fff#
40ggg[
16ggg]
16aaa
4bbb-
=99
32cc
32dd
16cc
16b
16cc
16ee
16bb-
16gg
16ee
32ff
32gg
16ff
16ee
16ff
16bb-
16fff
16ddd
16bb-
=100
16aa
16bb-
16ccc
16ddd
16eee-
16fff
16ggg
32aaa
32cccc
16bbb-
16aaa
16ggg
16fff
16eee-
16ddd
16ccc
32bb
32ddd
=101
16ccc
16bb-
16aa
16gg
16ff
16ee-
16dd
32cc#
32ccc
16bb-
16aa
16gg
16ff
16ee-
16dd
16cc
32b
32dd
=102
16cc
16b-
16a
16g
16f
16e-
16d
16c
4r
8r
8f
=103
4.cc#
8cc#
4cc
8b-
8b-
=104
8.b-
16a
12cc
12ee-
12ff#
4.ff
8ee-
=105
8.ee-
16cc#
12b-
12cc
12cc#
8.ff
16ee-
12ee-
12cc#
12cc
=106
8.b-
16a
12b-
12cc#
12cc
4.cc
8f
=107
4.cc#
8cc#
4cc
8b-
8b-
=108
8.b-
16a
12cc
12ee-
12ff#
4.ff
8ee-
=109
8.ee-
16cc#
12b-
12cc
12cc#
8.cc
16b-
12cc#
12cc
12b-
=110
8.f#
16f
12f
12f#
12f
4.B-
8ff
=111
4.ccc#
8ccc#
4ccc
8bb-
8bb-
=112
16bb-
16bb-
16bb-
16aa
12ccc
12eee-
12fff#
4.fff
8eee-
=113
8.eee-
16ccc#
16bb-
16ccc
32ccc
32ccc#[
32ccc#]
32ccc#
8.fff
16eee-
12eee-
12ccc#
12ccc
=114
8.bb-
16aa
12bb-
12ccc#
12ccc
4.ccc
8ff
=115
4.ccc#
8ccc#
4ccc
8bb-
8bb-
=116
16bb-
16bb-
16bb-
16aa
12ccc
12eee-
12fff#
4.fff
8eee-
=117
8.eee-
16ccc#
12bb-
12ccc
12ccc#
8.ccc
16bb-
12ccc#
12ccc
12bb-
=118
8.ff#
16ff
12ff
12ff#
12ff
4.b-
8cc#
=119
4cc#
12cc#
12ee-
12cc#
4cc#
8.b-
16bb-
=120
4bb-
16bb
16ccc
32ccc
32ccc#[
32ccc#]
32ccc#
8.fff
16ccc#
4ccc
=121
8cc
8ff
8aa
8ccc
4ccc
12bb-
12aa
12gg
=122
12ff#
12aa
12ff
12ff
12ff#
12ee
4ff
12ee-
12cc#
12cc
=123
4cc
8b-
8b-
4cc
8b-
8b-
=124
12b
12b-
12dd
12ff
12aa-
12bb
4bb-[
8bb-]
8ee-
=125
8.cc#
16cc
16cc
16cc#
32cc#
32ee-[
32ee-]
32ee-
8.ff#
16ff
12ff
12bb-
12ccc#
=126
8.ccc#
16ccc
12ccc
12eee-
12aa
4.bb-
8cc#
=127
4cc#
12cc#
12ee-
12cc#
4cc#
8.b-
16bb-
=128
4bb-
16bb
16ccc
32ccc
32ccc#[
32ccc#]
32ccc#
8.fff
16ccc#
4ccc
=129
8cc
8ff
8aa
8ccc
4ccc
12bb-
12aa
12gg
=130
12ff#
12aa
12ff
12ff
12ff#
12ee
4ff
12ee-
12cc#
12cc
=131
4cc
8b-
8b-
4cc
8b-
8b-
=132
12b
12b-
12dd
12ff
12aa-
12bb
4bb-[
8bb-]
8ee-
=133
8.cc#
16cc
16cc
16cc#
32cc#
32ee-[
32ee-]
32ee-
8.ff#
16ff
12ff
12bb-
12ccc#
=134
8.ccc#
16ccc
12ccc
12eee-
12aa
4bb-
8r
8cc#
=135
8.cc#
16cc
12cc
12ee-
12a
4b-
12b-
12cc#
12ff
=136
8.ff
16ee-
12ee-
12ff#
12aa
4.bb-
8cc#
=137
16c#
16cc#
16b-
16cc#
16c#
16cc#
16b-
16cc#
16c#
16cc#
16b-
16cc#
16c#
16cc#
16b-
16cc#
=138
16c#
16cc#
16b
16cc#
16c#
16cc#
16b
16cc#
16c#
16cc#
16b
16cc#
16c#
16cc#
16b
16cc#
=139
16c#
16cc#
16b-
16cc#
16c#
16cc#
16b-
16cc#
16e-
16ee-
16b
16ee-
16e-
16ee-
8b
=140
8r
16ff#
16aa-
16ff#
16aa-
16ee-
16aa-
16ff
16aa-
16bb
16ccc#
16bb-
16ccc#
16aa-
16ccc#
=141
16.fff#
32ccc#
8bbb-
16.bbb-
32bbb-[
8bbb-]
8bbb-
8fff#
8ccc#
8bb-
=142
16r
32r
32ccc#
8bbb
16.bbb
32bbb[
8bbb]
8bbb
8aaa-
8fff
8bb
=143
16r
32r
32cc#
8bb-
16.bb-
32bb-[
8bb-]
8bb-
8aa
8gg#
8ff#
=144
8ff
8ccc#
8bb
8aa-
2ff#
=145
16c#
16cc#
16b-
16cc#
16c#
16cc#
16b-
16cc#
16c#
16cc#
16b-
16cc#
16c#
16cc#
16b-
16cc#
=146
16c#
16cc#
16b
16cc#
16c#
16cc#
16b
16cc#
16c#
16cc#
16b
16cc#
16c#
16cc#
16b
16cc#
=147
16c#
16cc#
16b-
16cc#
16c#
16cc#
16b-
16cc#
16e-
16ee-
16b
16ee-
16e-
16ee-
8b
=148
8r
16ff#
16aa-
16ff#
16aa-
16ee-
16aa-
16ff
16aa-
16bb
16ccc#
16bb-
16ccc#
16aa-
16ccc#
=149
16.fff#
32ccc#
8bbb-
16.bbb-
32bbb-[
8bbb-]
8bbb-
8fff#
8ccc#
8bb-
=150
16r
32r
32ccc#
8bbb
16.bbb
32bbb[
8bbb]
8bbb
8aaa-
8fff
8bb
=151
16r
32r
32cc#
8bb-
16.bb-
32bb-[
8bb-]
8bb-
8aa
8gg#
8ff#
=152
8ff
8ccc#
8bb
8aa-
2ff#
=153
16d
16dd
16b-
16dd
16d
16dd
16b-
16dd
16e-
16ee-
16b-
16ee-
16b-
16bb-
16ff#
16bb-
=154
16e-
16ee-
16b-
16ee-
16e-
16ee-
16cc#
16ee-
16e-
16ee-
16cc
16ee-
16cc
16ccc
16aa-
16ccc
=155
8cc#
8ccc#
4ccc#
8ccc#
8bb-
8ff#
8bb-
=156
8cc#
8aa-
8ff#
8ee-
8cc#
8cc#
8cc#[
8cc#]
=157
16c#
16cc#
16b-
16cc#
16c#
16cc#
16b-
16cc#
16e
16ee
16cc#
16ee
16e
16ee
16cc#
16ee
=158
16e-
16ee-
16b
16ee-
16e-
16ee-
16b
16ee-
16a
16aa
16ff#
16aa
16a
16aa
16ff#
16aa
=159
8ccc
8cccc
8cccc
8cccc
8eeee-
8cccc#
8bbb-
8fff#
=160
8fff
8cccc#
8bbb
8aaa-
2fff#
=161
16d
16dd
16b-
16dd
16d
16dd
16b-
16dd
16e-
16ee-
16b-
16ee-
16b-
16bb-
16ff#
16bb-
=162
16e-
16ee-
16b-
16ee-
16e-
16ee-
16cc#
16ee-
16e-
16ee-
16cc
16ee-
16cc
16ccc
16aa-
16ccc
=163
8cc#
8ccc#
4ccc#
8ccc#
8bb-
8ff#
8bb-
=164
8cc#
8aa-
8ff#
8ee-
8cc#
8cc#
8cc#[
8cc#]
=165
16c#
16cc#
16b-
16cc#
16c#
16cc#
16b-
16cc#
16e
16ee
16cc#
16ee
16e
16ee
16cc#
16ee
=166
16e-
16ee-
16b
16ee-
16e-
16ee-
16b
16ee-
16a
16aa
16ff#
16aa
16a
16aa
16ff#
16aa
=167
8ccc
8cccc
8cccc
8cccc
8eeee-
8cccc#
8bbb-
8fff#
=168
8fff
8cccc#
8bbb
8aaa-
4.fff#
8ff#
=169
8ff
8ccc#
8bb
8aa-
4.ff#
8f#
=170
8f
8cc#
8b
8a-
2f#
=171
4f#
4f#[
8f#]
8f#
8f
8e
=172
2.f
4b-
=173
4a
4ff
4ee-
8.cc
16fff
=174
24eee
24ggg
24fff
24eee-
24ddd
24ccc
24bb-
24aa
24gg
24ff
24ee-
24dd
4cc
8.b-
16b-
=175
24a
24b-
24cc
24dd
24ee-
24ff
24gg
24aa
24bb-
24bb
24ccc
24ddd
4fff
8.eee-
16eee-
=176
24ddd
24dddd
24cccc
24bbb-
24aaa
24ggg
24fff
24eee-
24ddd
24ccc
24bb-
24aa
24gg
24ggg
24fff
24eee-
24ddd
24ccc
24bb-
24aa
24gg
24ff
24ee-
24dd
=177
24cc
24ee
24gg
24bb-
24gg
24bb-
24ccc
24eee
24ggg
24bbb-
24ggg
24eee
8fff
24fff
24ggg
24fff
24eee
24ggg
24fff
24eee-
24ggg
24fff
=178
24eee
24ggg
24fff
24eee-
24ddd
24ccc
24bb-
24aa
24gg
24ff
24ee-
24dd
4cc
8.b-
16b-
=179
24a
24b-
24cc
24dd
24ee-
24ff
24gg
24aa
24bb-
24bb
24ccc
24ddd
8.fff
16eee
8.eee-
16eee-
=180
24ddd
24dddd
24cccc
24bbb-
24aaa
24ggg
24fff
24eee-
24ddd
24ccc
24bb-
24aa
24gg
24bbb-
24ggg
24eee
24ccc#
24bb-
24gg
24ee
24cc#
24b-
24g
24e
=181
24f
24e
24f
24g
24a
24b-
24cc
24dd
24ee-
24ff
24gg
24aa
24bb-
24ddd
24fff
24bbb-
24dddd
24cccc
24bbb-
24fff
24ddd
24bb-
24ddd
24fff
=182
24eee
24ggg
24fff
24eee-
24ddd
24ccc
24bb-
24aa
24gg
24ff
24ee-
24dd
4cc
8.b-
16b-
=183
24a
24b-
24cc
24dd
24ee-
24ff
24gg
24aa
24bb-
24bb
24ccc
24ddd
4fff
8.eee-
16eee-
=184
24ddd
24dddd
24cccc
24bbb-
24aaa
24ggg
24fff
24eee-
24ddd
24ccc
24bb-
24aa
24gg
24ggg
24fff
24eee-
24ddd
24ccc
24bb-
24aa
24gg
24ff
24ee-
24dd
=185
24cc
24ee
24gg
24bb-
24gg
24bb-
24ccc
24eee
24ggg
24bbb-
24ggg
24eee
8fff
24fff
24ggg
24fff
24eee
24ggg
24fff
24eee-
24ggg
24fff
=186
24eee
24ggg
24fff
24eee-
24ddd
24ccc
24bb-
24aa
24gg
24ff
24ee-
24dd
4cc
8.b-
16b-
=187
24a
24b-
24cc
24dd
24ee-
24ff
24gg
24aa
24bb-
24bb
24ccc
24ddd
8.fff
16eee
8.eee-
16eee-
=188
24ddd
24dddd
24cccc
24bbb-
24aaa
24ggg
24fff
24eee-
24ddd
24ccc
24bb-
24aa
24gg
24bbb-
24ggg
24eee
24ccc#
24bb-
24gg
24ee
24cc#
24b-
24g
24e
=189
24f
24e
24f
24g
24a
24b-
24cc
24dd
24ee-
24ff
24gg
24aa
24bb-
24ddd
24fff
24bbb-
24dddd
24cccc
24bbb-
24fff
24ddd
24bb-
24ccc
24ccc#
=190
4ddd
8ddd
8ddd
4.ddd
8ggg
=191
4.bbb-
8ggg
2eee
=192
8r
16fff
16fff
32fff
32fff
16ccc
24ff
24cc
24a
8g
32fff
32fff
16fff
32fff
32fff
16ddd
24ff
24dd
24b-
=193
24a
24ccc
24bb-
24aa
24gg
24ff
24ee
24dd
24cc
24b-
24a
24g
8f
24ff
24gg
24ff
24ee
24gg
24ff
24ee
24ggg
24fff
=194
24eee
24ggg
24fff
24eee-
24ddd
24ccc
24bb-
24aa
24gg
24ff
24ee-
24dd
4cc
8.b-
16a
=195
24b-
24cc
24dd
24ee-
24ff
24gg
24aa
24bb-
24ccc
24ddd
24eee-
24fff
40ggg
40aaa
40ggg
40fff
40ggg[
16ggg]
16bbb-
8.cccc#
16cc
=196
24b
24cc
24dd
24ee
24ff
24gg
24aa
24bb-
24ccc
24ddd
24eee-
24eee
24fff
24ffff
24eeee
24eeee-
24dddd
24cccc
24bbb-
24aaa
24ggg
24fff
24eee-
24ddd
=197
24ccc
24aaa
24ggg
24eee-
24ccc
24bb-
24aa
24gg
24ff
24ee-
24dd
24cc
24b-
24dd
24ff
24bb-
24ddd
24ccc
24bb-
24aa
24bb-
24bb
24ccc
24ccc#
=198
4ddd
8ddd
8ddd
4.ddd
8ggg
=199
4.bbb-
8ggg
2eee
=200
8r
16fff
16fff
32fff
32fff
16ccc
24ff
24cc
24a
8g
32fff
32fff
16fff
32fff
32fff
16ddd
24ff
24dd
24b-
=201
24a
24ccc
24bb-
24aa
24gg
24ff
24ee
24dd
24cc
24b-
24a
24g
8f
24ff
24gg
24ff
24ee
24gg
24ff
24ee
24ggg
24fff
=202
24eee
24ggg
24fff
24eee-
24ddd
24ccc
24bb-
24aa
24gg
24ff
24ee-
24dd
4cc
8.b-
16a
=203
24b-
24cc
24dd
24ee-
24ff
24gg
24aa
24bb-
24ccc
24ddd
24eee-
24fff
40ggg
40aaa
40ggg
40fff
40ggg[
16ggg]
16bbb-
8.cccc#
16cc
=204
24b
24cc
24dd
24ee
24ff
24gg
24aa
24bb-
24ccc
24ddd
24eee-
24eee
24fff
24ffff
24eeee
24eeee-
24dddd
24cccc
24bbb-
24aaa
24ggg
24fff
24eee-
24ddd
=205
24ccc
24aaa
24ggg
24eee-
24ccc
24bb-
24aa
24gg
24ff
24ee-
24dd
24cc
24b-
24dd
24ff
24bb-
24ddd
24ccc
24bb-
24aa
24gg
24ff
24ee-
24dd
=206
24cc
24aa
24gg
24ee-
24cc
24b-
24a
24g
24f
24e-
24d
24c
24B-
24d
24f
24b-
24dd
24cc
24b-
24a
24g
24f
24e-
24d
=207
24c
24a
24g
24e-
24c
24B-
4r
2r
=208
1r
=209
1r
=210
1r
=211
1r
=212
4dd
8dd
8dd
4dd
4g
=213
8cc
16b
16cc
16b
16cc
16.dd
32cc
2b-
=214
2ccc[
8ccc]
16bb
16ccc
16bb
16ccc
16.eee-
32aa
=215
4bb-
4r
4dd
4r
=216
1b-
==
*-
